res/img/classification/geometry.svg

<?xml version="1.0" encoding="UTF-8" standalone="no"?>
<!-- Created with Inkscape (http://www.inkscape.org/) -->

<svg
 xmlns:dc="http://purl.org/dc/elements/1.1/"
 xmlns:cc="http://creativecommons.org/ns#"
 xmlns:rdf="http://www.w3.org/1999/02/22-rdf-syntax-ns#"
 xmlns:svg="http://www.w3.org/2000/svg"
 xmlns="http://www.w3.org/2000/svg"
 version="1.0"
 width="100%"
 height="100%"
 viewBox="0 0 48 48"
 id="ontology">
<metadata
 id="metadata19">
<rdf:RDF>
<cc:Work
 rdf:about="">
<dc:format>image/svg+xml</dc:format>
<dc:type
 rdf:resource="http://purl.org/dc/dcmitype/StillImage" />
<dc:title></dc:title>
</cc:Work>
</rdf:RDF>
</metadata>
<defs
 id="defs2385" />
<rect
 width="47"
 height="47"
 ry="9.1800003"
 x="0.5"
 y="0.5"
 id="r2393"
 style="fill:#ecc669;fill-opacity:1;fill-rule:nonzero;stroke:none;stroke-width:1;marker:none;visibility:visible;display:inline;overflow:visible;enable-background:accumulate" />
<path
 d="M 0.4,9 47.6,9"
 id="path2450"
 style="fill:none;stroke:#cc9954;stroke-width:1;stroke-linecap:butt;stroke-linejoin:round;stroke-miterlimit:4;stroke-opacity:1;stroke-dasharray:none;stroke-dashoffset:0;marker:none;visibility:visible;display:inline;overflow:visible;enable-background:accumulate" />
<path
 d="m 0.4,21 47.2,0"
 id="path3222"
 style="fill:none;stroke:#cc9954;stroke-width:1;stroke-linecap:butt;stroke-linejoin:round;stroke-miterlimit:4;stroke-opacity:1;stroke-dasharray:none;stroke-dashoffset:0;marker:none;visibility:visible;display:inline;overflow:visible;enable-background:accumulate" />
<path
 d="m 0.4,33 47.2,0"
 id="path3228"
 style="fill:none;stroke:#cc9954;stroke-width:1;stroke-linecap:butt;stroke-linejoin:round;stroke-miterlimit:4;stroke-opacity:1;stroke-dasharray:none;stroke-dashoffset:0;marker:none;visibility:visible;display:inline;overflow:visible;enable-background:accumulate" />
<path
 d="m 3.577233,45 40.883358,0"
 id="path3234"
 style="fill:none;stroke:#cc9954;stroke-width:1;stroke-linecap:butt;stroke-linejoin:round;stroke-miterlimit:4;stroke-opacity:1;stroke-dasharray:none;stroke-dashoffset:0;marker:none;visibility:visible;display:inline;overflow:visible;enable-background:accumulate" />
<path
 d="M 40.8,0.86476941 40.8,47.08134"
 id="path3240"
 style="fill:none;stroke:#cc9954;stroke-width:1;stroke-linecap:butt;stroke-linejoin:round;stroke-miterlimit:4;stroke-opacity:1;stroke-dasharray:none;stroke-dashoffset:0;marker:none;visibility:visible;display:inline;overflow:visible;enable-background:accumulate" />
<path
 d="m 28.8,0.6 0,47.2"
 id="path3242"
 style="fill:none;stroke:#cc9954;stroke-width:1;stroke-linecap:butt;stroke-linejoin:round;stroke-miterlimit:4;stroke-opacity:1;stroke-dasharray:none;stroke-dashoffset:0;marker:none;visibility:visible;display:inline;overflow:visible;enable-background:accumulate" />
<path
 d="m 16.8,0.6 0,47.2"
 id="path3244"
 style="fill:none;stroke:#cc9954;stroke-width:1;stroke-linecap:butt;stroke-linejoin:round;stroke-miterlimit:4;stroke-opacity:1;stroke-dasharray:none;stroke-dashoffset:0;marker:none;visibility:visible;display:inline;overflow:visible;enable-background:accumulate" />
<path
 d="m 4.8,2.0751439 0,43.9092941"
 id="path3246"
 style="fill:none;stroke:#cc9954;stroke-width:1;stroke-linecap:butt;stroke-linejoin:round;stroke-miterlimit:4;stroke-opacity:1;stroke-dasharray:none;stroke-dashoffset:0;marker:none;visibility:visible;display:inline;overflow:visible;enable-background:accumulate" />
<path
 d="m 0.4,37.992795 47.2,0"
 id="path3271"
 style="fill:none;stroke:#30251c;stroke-width:1;stroke-linecap:butt;stroke-linejoin:round;stroke-miterlimit:4;stroke-opacity:1;stroke-dasharray:none;stroke-dashoffset:0;marker:none;visibility:visible;display:inline;overflow:visible;enable-background:accumulate" />
<path
 d="m 45.691635,20.917871 a 16.945242,16.945242 0 1 1 -33.890484,0 16.945242,16.945242 0 1 1 33.890484,0 z"
 id="path3269"
 style="fill:none;stroke:#30251c;stroke-width:1;stroke-linecap:butt;stroke-linejoin:round;stroke-miterlimit:4;stroke-opacity:1;stroke-dasharray:none;stroke-dashoffset:0;marker:none;visibility:visible;display:inline;overflow:visible;enable-background:accumulate" />
<rect
 width="47"
 height="47"
 ry="9.1800003"
 x="0.5"
 y="0.5"
 id="rect3277"
 style="fill:none;stroke:#cc9954;stroke-width:1;stroke-linecap:butt;stroke-linejoin:round;stroke-miterlimit:4;stroke-opacity:1;stroke-dasharray:none;stroke-dashoffset:0;marker:none;visibility:visible;display:inline;overflow:visible;enable-background:accumulate" />
<path
 d="m 16.869508,33.001695 23.916029,-0.02899 0.05165,-23.7993333 z"
 id="path3279"
 style="fill:none;stroke:#30251c;stroke-width:1;stroke-linecap:butt;stroke-linejoin:round;stroke-miterlimit:4;stroke-opacity:1;stroke-dasharray:none;stroke-dashoffset:0;marker:none;visibility:visible;display:inline;overflow:visible;enable-background:accumulate" />
</svg>

<?xml version="1.0" encoding="UTF-8" standalone="no"?>
<!-- Created with Inkscape (http://www.inkscape.org/) -->
<svg
   xmlns:svg="http://www.w3.org/2000/svg"
   xmlns="http://www.w3.org/2000/svg"
   version="1.0"
   width="100%"
   height="100%"
   viewBox="0 0 48 48"
   id="ontology">
  <defs
     id="defs2385" />
  <rect
     width="47"
     height="47"
     ry="9.1800003"
     x="0.5"
     y="0.5"
     id="r2393"
     style="opacity:1;fill:#ecc669;fill-opacity:1;fill-rule:nonzero;stroke:none;stroke-width:1;stroke-linecap:butt;stroke-linejoin:round;marker:none;stroke-miterlimit:4;stroke-dasharray:none;stroke-dashoffset:0;stroke-opacity:1;visibility:visible;display:inline;overflow:visible;enable-background:accumulate" />
  <path
     d="M 0.4,9 L 47.6,9"
     id="path2450"
     style="opacity:1;fill:none;fill-opacity:1;fill-rule:nonzero;stroke:#cc9954;stroke-width:1;stroke-linecap:butt;stroke-linejoin:round;marker:none;marker-start:none;marker-mid:none;marker-end:none;stroke-miterlimit:4;stroke-dasharray:none;stroke-dashoffset:0;stroke-opacity:1;visibility:visible;display:inline;overflow:visible;enable-background:accumulate" />
  <path
     d="M 0.4,21 L 47.6,21"
     id="path3222"
     style="fill:none;fill-opacity:1;fill-rule:nonzero;stroke:#cc9954;stroke-width:1;stroke-linecap:butt;stroke-linejoin:round;marker:none;marker-start:none;marker-mid:none;marker-end:none;stroke-miterlimit:4;stroke-dasharray:none;stroke-dashoffset:0;stroke-opacity:1;visibility:visible;display:inline;overflow:visible;enable-background:accumulate" />
  <path
     d="M 0.4,33 L 47.6,33"
     id="path3228"
     style="fill:none;fill-opacity:1;fill-rule:nonzero;stroke:#cc9954;stroke-width:1;stroke-linecap:butt;stroke-linejoin:round;marker:none;marker-start:none;marker-mid:none;marker-end:none;stroke-miterlimit:4;stroke-dasharray:none;stroke-dashoffset:0;stroke-opacity:1;visibility:visible;display:inline;overflow:visible;enable-background:accumulate" />
  <path
     d="M 3.577233,45 L 44.460591,45"
     id="path3234"
     style="fill:none;fill-opacity:1;fill-rule:nonzero;stroke:#cc9954;stroke-width:1;stroke-linecap:butt;stroke-linejoin:round;marker:none;marker-start:none;marker-mid:none;marker-end:none;stroke-miterlimit:4;stroke-dasharray:none;stroke-dashoffset:0;stroke-opacity:1;visibility:visible;display:inline;overflow:visible;enable-background:accumulate" />
  <path
     d="M 40.8,0.86476941 L 40.8,47.08134"
     id="path3240"
     style="fill:none;fill-opacity:1;fill-rule:nonzero;stroke:#cc9954;stroke-width:1;stroke-linecap:butt;stroke-linejoin:round;marker:none;marker-start:none;marker-mid:none;marker-end:none;stroke-miterlimit:4;stroke-dasharray:none;stroke-dashoffset:0;stroke-opacity:1;visibility:visible;display:inline;overflow:visible;enable-background:accumulate" />
  <path
     d="M 28.8,0.6 L 28.8,47.8"
     id="path3242"
     style="fill:none;fill-opacity:1;fill-rule:nonzero;stroke:#cc9954;stroke-width:1;stroke-linecap:butt;stroke-linejoin:round;marker:none;marker-start:none;marker-mid:none;marker-end:none;stroke-miterlimit:4;stroke-dasharray:none;stroke-dashoffset:0;stroke-opacity:1;visibility:visible;display:inline;overflow:visible;enable-background:accumulate" />
  <path
     d="M 16.8,0.6 L 16.8,47.8"
     id="path3244"
     style="fill:none;fill-opacity:1;fill-rule:nonzero;stroke:#cc9954;stroke-width:1;stroke-linecap:butt;stroke-linejoin:round;marker:none;marker-start:none;marker-mid:none;marker-end:none;stroke-miterlimit:4;stroke-dasharray:none;stroke-dashoffset:0;stroke-opacity:1;visibility:visible;display:inline;overflow:visible;enable-background:accumulate" />
  <path
     d="M 4.8,2.0751439 L 4.8,45.984438"
     id="path3246"
     style="fill:none;fill-opacity:1;fill-rule:nonzero;stroke:#cc9954;stroke-width:1;stroke-linecap:butt;stroke-linejoin:round;marker:none;marker-start:none;marker-mid:none;marker-end:none;stroke-miterlimit:4;stroke-dasharray:none;stroke-dashoffset:0;stroke-opacity:1;visibility:visible;display:inline;overflow:visible;enable-background:accumulate" />
  <path
     d="M 0.4,37.992795 L 47.6,37.992795"
     id="path3271"
     style="opacity:1;fill:none;fill-opacity:1;fill-rule:nonzero;stroke:#30251c;stroke-width:1;stroke-linecap:butt;stroke-linejoin:round;marker:none;marker-start:none;marker-mid:none;marker-end:none;stroke-miterlimit:4;stroke-dasharray:none;stroke-dashoffset:0;stroke-opacity:1;visibility:visible;display:inline;overflow:visible;enable-background:accumulate" />
  <path
     d="M 45.691635,20.917871 A 16.945242,16.945242 0 1 1 11.801151,20.917871 A 16.945242,16.945242 0 1 1 45.691635,20.917871 z"
     id="path3269"
     style="opacity:1;fill:none;fill-opacity:1;fill-rule:nonzero;stroke:#30251c;stroke-width:1;stroke-linecap:butt;stroke-linejoin:round;marker:none;marker-start:none;marker-mid:none;marker-end:none;stroke-miterlimit:4;stroke-dasharray:none;stroke-dashoffset:0;stroke-opacity:1;visibility:visible;display:inline;overflow:visible;enable-background:accumulate" />
  <rect
     width="47"
     height="47"
     ry="9.1800003"
     x="0.5"
     y="0.5"
     id="rect3277"
     style="opacity:1;fill:none;fill-opacity:1;fill-rule:nonzero;stroke:#cc9954;stroke-width:1;stroke-linecap:butt;stroke-linejoin:round;marker:none;stroke-miterlimit:4;stroke-dasharray:none;stroke-dashoffset:0;stroke-opacity:1;visibility:visible;display:inline;overflow:visible;enable-background:accumulate" />
  <path
     d="M 4.5389042,9.1167206 L 28.595097,32.719022 L 40.850138,20.766575 L 4.5389042,9.1167206 z"
     id="path3279"
     style="opacity:1;fill:none;fill-opacity:1;fill-rule:nonzero;stroke:#30251c;stroke-width:1;stroke-linecap:butt;stroke-linejoin:round;marker:none;marker-start:none;marker-mid:none;marker-end:none;stroke-miterlimit:4;stroke-dasharray:none;stroke-dashoffset:0;stroke-opacity:1;visibility:visible;display:inline;overflow:visible;enable-background:accumulate" />
</svg>
